X: 28768
T: My Lodging Is Uncertain
R: reel
M: 4/4
K: Dminor
Ac|:d3e fedc|d2A2 AAGF|G2GF GAc2|c4- c2Ac|
d2de fedc|d2A2 AAGF|G2GF D2C2|1 D4- D2Ac:|2 D4- D2GA||
|:G2D2 DDCD|B2BG A2GF|G2GF GAc2|c4- c2Ac|
G2D2 DDCD|B2BG A2GF|G2GF D2C2|1 D4- D2GA:|2 D4- D2Ac||

